!!!OTL: Graf und Nonne (Die Nonne) Stand ich auf hohen Felsen
!!!ARE: Europa, Osteuropa, UdSSR, Bessarabien, Karolinengrund, Eigenheim
!!!YOR: 8, S. 97
!!    1941 aufgezeichnet
!!!SCT: Q0155k
!!!YEM: Copyright 1995, estate of Helmut Schaffrath.
**kern
*ICvox
*Ivox
*M6/8
*k[b-e-a-]
*E-:
{8B-
=1
4e-
8g
4b-
8e-
=2
8e-
4d
4r}
{8B-
=3
4d
8f
4b-
8a-
=4
4.g
4r}
{16e-
16f
=5
4g
8g
4a-
8b-
=6
4cc
8ee-
4dd}
{8cc
=7
8b-
8b-
8b-
4b-
8a-
=8
4.g
4r}
==
!!!AGN: Ballade, Standesunterschied, Werbung, Liebe
!!!ONB: ESAC (Essen Associative Code) Database: BALLADE
!!!AMT: compound duple
!!!AIN: vox
!!!EED: Helmut Schaffrath
!!!EEV: 1.0
*-
